X: 125
T: Of My Love I Was Thinking
N:"Cheerful" "collected by J. O'Neill"
B:O'Neill's 125
Z:Transcribed by henrik.norbeck@mailbox.swipnet.se
M:6/8
L:1/8
K:G
(B/c/)|d>ed (dBG)|gba (.g2 .d)|(e>fg) (dBG)|A3- A2 (B/c/)|
d>ed (dBG)|(gba) (g2 (g/e/))|.d.B.G .F.G.A|G3- G2||
B|(Beg) {a}(gfe)|(f^cd) (.B2 .B)|(bc'b) (af{a}g)|e3- e2 (g/a/)|
.b.a.b .a.e.f|(gba) (g2 g/e/)|.d.B.G .F.G.A|G3- G2||


